X:1
T:Barton Island
M:4/4
L:1/4
C:Meg Browing
S:Noel <noelbats@onetel.com> tradtunes 2010-11-23
K:G
D |\
GG Ac | B2 Ac | B2 Ac | BG AF | GG Ac | B2 Ac | BG AF | GD DD |
GG Ac | B2 Ac | B2 Ac | BG AF | G2 Ac | B2 Ac | BG AF | G2 Bd |
g2 ga | gf ed | ec ce | dB Bd | g2 ga | gf ed | fa ge | d2 ef |
gb af | ge fd | ec dB | ce dB | G2 Ac | BG Ac | BG AF | G2 Bd |
g2 ga | gf ed | ec ce | dB Bd | g2 ga | gf ed | fa ge | d2 ef |
gb af | ge fd | ec dB | ce dB | G2 Ac | BG Ac | BG AF | G2 z |]
